X:1
T:Normandy (Bost), 87.87 D
T:Normandy (Bost), 87.87 D
T:Paul Ami Isaac David Bost (1790-1874)
T:Public Domain Courtesy of the Cyber Hymnal™
C:Paul Ami Isaac David Bost (1790-1874)
Z:Public Domain
Z:Courtesy of the Cyber Hymnal™
%%score ( 1 2 ) ( 3 4 )
L:1/8
Q:1/4=100
M:4/4
K:D
V:1 treble 
V:2 treble 
V:3 bass 
V:4 bass 
V:1
 ([DF][CE]) ([DF][EG]) [FA]2 [DF]2 | (dc) (dB) [DA]2 [DF]2 | ([DF][CE]) ([DF][EG]) [FA]2 [DF]2 | %3
 ([GB][FA]) ([EG][DF]) [CE]4 | ([DF][CE]) ([DF][EG]) [FA]2 [DF]2 | (dc) (dB) [DA]2 [DF]2 | %6
 [Ee]2 ed [Ec]2 [FB]2 | [EA]2 [E^G]2 [EA]4 | [EA]2 [Ac]2 [Ad]3 A | [Ae]3 A ([Af]>[Ge]) [Fd]2 | %10
 [DF]2 (FA) G3 z G | [DF]2 [DF]2 [CE]4 | [CA]2 [EA]2 [DF]3 [Fd] | (ed) (cB) [FA]2 [DF]2 | %14
 [Ad]2 (cd) [GB]2 (AG) | [DF]2 [CE]2 D4 x |] %16
V:2
 x8 | D2 D2 x4 | x8 | x8 | x8 | D2 D2 x4 | x2 E2 x4 | x8 | x7 A | x3 A x4 | x2 F2 E2 E2 x | x8 | %12
 x8 | G2 G2 x4 | x2 A2 x E2 x | x4 D4 x |] %16
V:3
 [D,A,]2 [D,A,]2 [D,A,]2 [D,A,]2 | (B,^A,) (B,G,) [D,F,]2 [D,=A,]2 | %2
 [D,A,]2 [D,A,]2 [D,A,]2 [D,D]2 | [G,,D]2 [G,,B,]2 [A,,C]4 | [D,A,]2 [D,A,]2 [D,A,]2 [D,A,]2 | %5
 (B,^A,) (B,G,) [D,F,]2 [D,=A,]2 | [C,A,]2 [B,,^G,]2 [A,,A,]2 [D,F,]2 | [E,C]2 [E,B,]2 [A,,C]4 | %8
 [A,C]2 [G,E]2 [F,D]3 [F,D] | [C,A,]3 [C,A,] [D,A,]2 [D,A,]2 | [D,A,]2 [D,A,]2 [D,B,]2 [C,A,]2 x | %11
 [D,A,]2 [D,A,]2 [A,,A,]4 | [A,,A,]2 [C,A,]2 [D,A,]3 [D,A,] | [D,B,]2 (EC) [D,D]2 [D,A,]2 | %14
 [F,D]2 [F,D]2 [G,D]2 [G,B,]2 | A,3 z G, [D,F,]4 |] %16
V:4
 x8 | D,2 D,2 x4 | x8 | x8 | x8 | D,2 D,2 x4 | x8 | x8 | x8 | x8 | x9 | x8 | x8 | x2 D,2 x4 | x8 | %15
 A,2 A,,2 x5 |] %16

